X:178 
T:Pull the Knife & Stick It Again  
B:CRE3.012 (Tarraing agus SÃÂÃÂÃÂÃÂ¡ith ArÃÂÃÂÃÂÃÂ­s)
F:file ID: cre.3/178pull_k
N:I included an ÃÂÃÂ¢ÃÂ¢ÃÂÃÂ¬ÃÂÃÂalternateÃÂÃÂ¢ÃÂ¢ÃÂÃÂ¬ÃÂÃÂ B in mm 2 and 6 in case low B
wonÃÂÃÂ¢ÃÂ¢ÃÂÃÂ¬ÃÂ¢ÃÂÃÂ¢t work for your instrument.
R:jig
Q:160
M:6/8
L:1/8
K:Em
E3 GFE|"2"D[B,B]E D[B,B]D|~E3 GFE|ABG AFD|
E2E GFE|"6"D[B,B]E DEF|~G2E FED|BED E3:|
edB BAF|EDB d2e|edB BAF|AB^c def|
edB BAF|EDF DEF|GFE FED|BED E3:|

%%%

